src/assets/images/icons/move.svg

<svg xmlns="http://www.w3.org/2000/svg" fill="none" viewBox="0 0 24 24"><path stroke="#181D27" stroke-linecap="round" stroke-linejoin="round" stroke-width="2" d="m5 9-3 3m0 0 3 3m-3-3h20M9 5l3-3m0 0 3 3m-3-3v20m3-3-3 3m0 0-3-3M19 9l3 3m0 0-3 3"/></svg>

<svg width="24" height="24" viewBox="0 0 24 24" fill="none" xmlns="http://www.w3.org/2000/svg">
<path d="M5 9L2 12M2 12L5 15M2 12H22M9 5L12 2M12 2L15 5M12 2V22M15 19L12 22M12 22L9 19M19 9L22 12M22 12L19 15" stroke="#181D27" stroke-width="2" stroke-linecap="round" stroke-linejoin="round"/>
</svg>
